; generated by Slic3r 1.2.9 on 2018-10-31 at 15:21:22

; https://www.youtube.com/watch?v=RkMNx0dD2vE&feature=youtu.be
; https://3duniverse.org/2014/01/05/using-slic3r-with-a-flashforge-creator/
; http://www.thingiverse.com/thing:81425/#files
; http://manual.slic3r.org/getting-slic3r/getting-slic3r#building-from-source
; 
; Saved GPX post-processing in Applications. All the rest is saved as different Printer Profiles

; external perimeters extrusion width = 0.40mm
; perimeters extrusion width = 0.67mm
; infill extrusion width = 0.67mm
; solid infill extrusion width = 0.67mm
; top infill extrusion width = 0.67mm
; support material extrusion width = 0.40mm

M127
M109 S120 ; set bed temperature
;
;
;- - - - SUMMARY - - - -
;
;first layer temperature = 240C
;temperature = 230C
;first layer bed temperature = 120C
;bed temperature = 110C
;
;first layer height = 0.35mm
;layer height = 0.2mm
;z_offset = 0mm
;perimeters = 2
;fill density = 15%
;infill every n layers = 1
;skirts = 1
;brim width = 0mm
;raft layers = 0
;support material = 1
;support material threshold = 0 degrees
;support material enforced for first n layers = 0
;support material extruder = 1
;
;first layer speed = 30
;perimeter speed = 30mm/s
;small perimeter speed = 30
;external perimeter speed = 70%
;infill speed = 60mm/s
;solid infill speed = 60
;top solid infill speed = 50
;support material speed = 60mm/s
;gap fill speed = 20mm/s
;travel speed = 130mm/s
;bridge speed = 60mm/s
;bridge flow ratio = 1
;slowdown if layer time is less than = 5secs
;minimum print speed = 10mm/s
;
;bottom solid layers = 3
;top solid layers = 3
;
;
;- - - - EXTRUSION - - - -
;
;filament diameter = 1.76mm
;nozzle diameter = 0.4mm
;bridge flow ratio = 1
;extrusion axis = E
;extrusion multiplier = 1
;extrusion width = 0mm
;first layer extrusion width = 200%mm
;perimeter extrusion width = 0mm
;infill extrusion width = 0mm
;solid infill extrusion width = 0mm
;top infill extrusion width = 0mm
;support material extrusion width = 0mm
;
;
;- - - - SUPPORT - - - -
;
;raft layers = 0
;brim width = 0mm
;support material = 1
;support material threshold = 0 degrees
;support material enforced for first n layers = 0
;support material extruder = 1
;support material extrusion width = 0mm
;support material interface layers = 4
;support material interface spacing = 0mm
;support material pattern = rectilinear
;support material angle = 0 degrees
;support material spacing = 2.5mm
;support material speed = 60mm/s
;
;
;- - - - EVERYTHING ELSE - - - -
;
;complete objects = 0
;cooling enabled = 1
;default acceleration = 0mm/s/s
;disable fan for first layers = 3
;duplicate = [duplicate]
;duplicate distance = 6mm
;duplicate grid = [duplicate_grid]
;external perimeters first = 0
;extra perimeters = 1
;extruder clearance height = 20mm
;extruder clearance radius = 20mm
;extruder offset = 0,0mm
;fan always on = 1
;fan below layer time = 60secs
;fill angle = 45 degrees
;fill pattern = honeycomb
;gcode arcs = 0
;gcode comments = 0
;gcode flavor = sailfish
;infill acceleration = 0mm/s/s
;infill extruder = 1
;infill first = 0
;infill only where needed = 0
;minimum skirt length = 0mm
;only retract when crossing perimeters = 1
;perimeter acceleration = 0mm/s/s
;perimeter extruder = 1
;randomize start = [randomize_start]
;resolution = 0mm
;retract before travel = 2
;retract on layer change = 0
;retract length = 2mm
;retract length on tool change = 10mm
;retract lift = 0
;retract extra distance on restart = 0mm
;retract extra on tool change = 0mm
;retract speed = 40mm/s
;rotate = [rotate] degrees
;scale = 100%
;skirt distance = 6mm
;skirt height = 1mm
;solid fill pattern = [solid_fill_pattern]
;solid infill below area = 70mm (sq)
;solid infill every n layers = 0
;
;
;- - - - - - - - - - - - - - - - - - - - - - - - -
;
;
T0; set primary extruder
M73 P0; enable show build progress
M109 S120 T0; heat bed up to first layer temperature
M104 S240 T0; set nozzle heater to first layer temperature
M103; disable RPM
G21; set units to mm
G162 X Y F6000; home XY axes maximum
G161 Z F9000; home Z axis minimum
G92 Z0; set Z to 0
M132 X Y Z A B; Recall stored home offsets
G90; set positioning to absolute
G1 Z30; move Z to waiting height
G1 X-95 Y-73 Z30 F14000; move to waiting position (front left corner of print bed)
G130 X0 Y0 A0 B0; set stepper motor vref to lower value while heating
M6 T0; wait for bed and extruder to heat up
G130 X127 Y127 A127 B127; set stepper motor vref to defaults
M108 T0 R3; set extruder speed
G92 E0; set E to 0
G90; use absolute coordinates
M320; acceleration enabled for all commands that follow
G1 Z0.35 F6000.000; move to first layer height
G1 X100 Y-73 F14000.000; move to front right corner of bed
G1 X-90 Y-73 E24 F2000.000; extrude a line of filament across the front edge of the bed
G4 P2000; wait for ooze to slow
G1 Z0 F6000.000; lower nozzle height to 0
G1 X-95; wipe nozzle
G1 Z0.35 F6000.000; set nozzle to first layer height
G1 F12000; ensure fast travel to first print move
G92 E0; set E to 0 again
M73 P0; reset build progress to 0
G21 ; set units to millimeters
G90 ; use absolute coordinates
M73 P0
G1 Z0.350 F7800.000
G1 E-2.00000 F2400.00000
G1 X-25.242 Y29.314 F7800.000
G1 E0.00000 F2400.00000
G1 X-90.772 Y-27.113 E7.77418 F1800.000
G1 X-92.258 Y-28.947 E7.98637
G1 X-92.988 Y-30.279 E8.12293
G1 X-93.726 Y-32.450 E8.32911
G1 X-93.676 Y-34.763 E8.53707
G1 X-92.749 Y-39.402 E8.96231
G1 X-92.176 Y-41.072 E9.12108
G1 X-91.462 Y-42.495 E9.26420
G1 X-90.095 Y-44.337 E9.47038
G1 X-88.182 Y-45.602 E9.67656
G1 X-86.630 Y-46.061 E9.82213
G1 X18.474 Y-63.592 E19.40140
G1 X20.113 Y-63.834 E19.55030
G1 X20.800 Y-63.898 E19.61233
G1 X22.500 Y-63.962 E19.76532
G1 X77.337 Y-63.955 E24.69510
G1 X78.702 Y-63.890 E24.81798 F1800.000
G1 X79.334 Y-63.829 E24.87503
G1 X80.638 Y-63.641 E24.99343
G1 X81.309 Y-63.508 E25.05499
G1 X82.550 Y-63.195 E25.17006
G1 X83.236 Y-62.982 E25.23461
G1 X84.415 Y-62.545 E25.34764
G1 X85.078 Y-62.256 E25.41266
G1 X86.196 Y-61.696 E25.52501
G1 X86.741 Y-61.390 E25.58123
G1 X87.805 Y-60.724 E25.69409
G1 X88.422 Y-60.288 E25.76200
G1 X89.420 Y-59.491 E25.87684
G1 X89.931 Y-59.040 E25.93811
G1 X90.868 Y-58.120 E26.05615
G1 X91.356 Y-57.585 E26.12121
G1 X92.222 Y-56.526 E26.24430
G1 X92.682 Y-55.890 E26.31480
G1 X93.464 Y-54.662 E26.44572
G1 X93.881 Y-53.903 E26.52355
G1 X94.554 Y-52.458 E26.66688
G1 X94.898 Y-51.553 E26.75384
G1 X95.420 Y-49.805 E26.91784
G1 X95.643 Y-48.751 E27.01475
G1 X95.927 Y-46.529 E27.21614
G1 X95.981 Y-45.740 E27.28724
G1 X96.002 Y-42.941 E27.53880
G1 X96.002 Y43.525 E35.31203
G1 X95.900 Y46.728 E35.60020
G1 X95.201 Y49.479 E35.85529
G1 X91.485 Y56.894 E36.60095
G1 X89.590 Y59.185 E36.86826
G1 X87.321 Y60.922 E37.12514
G1 X86.137 Y61.646 E37.24995
G1 X84.302 Y62.518 E37.43258
G1 X83.355 Y62.882 E37.52380
G1 X81.711 Y63.373 E37.67806
G1 X80.856 Y63.568 E37.75687
G1 X79.337 Y63.810 E37.89516
G1 X78.620 Y63.884 E37.95991
G1 X76.862 Y63.962 E38.11811
G1 X22.342 Y63.962 E43.01948
G1 X20.707 Y63.902 E43.16656
G1 X20.096 Y63.850 E43.22170
G1 X18.785 Y63.675 E43.34054
G1 X18.097 Y63.546 E43.40352
G1 X16.850 Y63.243 E43.51882
G1 X16.204 Y63.051 E43.57942
G1 X15.017 Y62.631 E43.69265
G1 X14.405 Y62.379 E43.75208
G1 X13.274 Y61.847 E43.86447
G1 X12.546 Y61.446 E43.93919
G1 X11.485 Y60.773 E44.05212
G1 X10.940 Y60.387 E44.11217
G1 X9.937 Y59.599 E44.22685
G1 X-25.197 Y29.353 E48.39453
G1 E46.39453 F2400.00000
G1 X46.243 Y31.008 F7800.000
G1 E48.39453 F2400.00000
G1 X47.081 Y30.132 E48.50348 F1800.000
G1 X48.192 Y29.456 E48.62044
G1 X49.441 Y29.091 E48.73739
G1 X50.691 Y29.063 E48.84974 F1800.000
G1 X52.001 Y29.367 E48.97067
G1 X53.146 Y29.995 E49.08810
G1 X54.087 Y30.894 E49.20505
G1 X54.763 Y32.005 E49.32200
G1 X55.128 Y33.254 E49.43895
G1 X55.157 Y34.560 E49.55639
G1 X54.824 Y35.863 E49.67731
G1 X54.224 Y36.959 E49.78967
G1 X53.325 Y37.900 E49.90662
G1 X52.213 Y38.576 E50.02357
G1 X50.965 Y38.941 E50.14052
G1 X49.664 Y38.970 E50.25747
G1 X48.400 Y38.662 E50.37442
G1 X47.304 Y38.061 E50.48678
G1 X46.321 Y37.142 E50.60770
G1 X45.643 Y36.026 E50.72514
G1 X45.575 Y35.795 E50.74677
G1 X45.278 Y34.778 E50.84209
G1 X45.249 Y33.472 E50.95952
G1 X45.581 Y32.168 E51.08045
G1 X46.202 Y31.051 E51.19532
G1 X46.695 Y31.440 F7800.000
G1 X47.476 Y30.623 E51.29688 F1800.000
G1 X48.447 Y30.033 E51.39904
G1 X49.537 Y29.714 E51.50120
G1 X50.626 Y29.689 E51.59908 F1800.000
G1 X51.776 Y29.957 E51.70521
G1 X52.774 Y30.503 E51.80754
G1 X53.596 Y31.289 E51.90970
G1 X54.186 Y32.260 E52.01186
G1 X54.505 Y33.350 E52.11401
G1 X54.530 Y34.488 E52.21635
G1 X54.238 Y35.632 E52.32248
G1 X53.715 Y36.587 E52.42036
G1 X52.930 Y37.409 E52.52251
G1 X51.959 Y37.999 E52.62467
G1 X50.868 Y38.318 E52.72683
G1 X49.732 Y38.343 E52.82899
G1 X48.628 Y38.074 E52.93115
G1 X47.673 Y37.551 E53.02903
G1 X46.811 Y36.745 E53.13516
G1 X46.220 Y35.772 E53.23749
G1 X45.901 Y34.681 E53.33965
G1 X45.875 Y33.543 E53.44198
G1 X46.167 Y32.399 E53.54811
G1 X46.665 Y31.491 E53.64119
G1 X46.550 Y31.067 F7800.000
G1 X36.595 Y32.769 F7800.000
G1 X36.703 Y33.585 E53.71515 F1800.000
G1 X36.567 Y34.616 E53.80863
G1 X36.169 Y35.577 E53.90212
G1 X35.536 Y36.401 E53.99560
G1 X34.711 Y37.035 E54.08908
G1 X33.750 Y37.432 E54.18256
G1 X32.719 Y37.568 E54.27604
G1 X31.677 Y37.431 E54.37052
G1 X30.726 Y37.034 E54.46318
G1 X29.898 Y36.398 E54.55700
G1 X29.255 Y35.540 E54.65347
G1 X28.872 Y34.616 E54.74338
G1 X28.736 Y33.585 E54.83686
G1 X28.872 Y32.554 E54.93035
G1 X29.270 Y31.593 E55.02383
G1 X29.903 Y30.768 E55.11731
G1 X30.728 Y30.135 E55.21079
G1 X31.733 Y29.719 E55.30856
G1 X32.687 Y29.608 E55.39498 F1800.000
G1 X33.745 Y29.735 E55.49079
G1 X34.711 Y30.135 E55.58475
G1 X35.536 Y30.768 E55.67824
G1 X36.169 Y31.593 E55.77172
G1 X36.567 Y32.554 E55.86520
G1 X36.587 Y32.710 E55.87933
G1 X35.976 Y32.851 F7800.000
G1 X36.072 Y33.585 E55.94589 F1800.000
G1 X35.958 Y34.453 E56.02458
G1 X35.623 Y35.261 E56.10327
G1 X35.090 Y35.956 E56.18196
G1 X34.396 Y36.489 E56.26065
G1 X33.587 Y36.824 E56.33934
G1 X32.719 Y36.938 E56.41803
G1 X31.842 Y36.822 E56.49763
G1 X31.042 Y36.488 E56.57549
G1 X30.347 Y35.955 E56.65431
G1 X29.802 Y35.228 E56.73598
G1 X29.481 Y34.453 E56.81141
G1 X29.366 Y33.585 E56.89010
G1 X29.481 Y32.717 E56.96879
G1 X29.816 Y31.908 E57.04748
G1 X30.348 Y31.214 E57.12617
G1 X31.043 Y30.681 E57.20486
G1 X31.891 Y30.330 E57.28742
G1 X32.686 Y30.237 E57.35935 F1800.000
G1 X33.585 Y30.345 E57.44079
G1 X34.396 Y30.681 E57.51965
G1 X35.090 Y31.214 E57.59834
G1 X35.623 Y31.908 E57.67703
G1 X35.958 Y32.717 E57.75572
G1 X35.968 Y32.791 E57.76246
G1 X36.345 Y33.004 F7800.000
G1 X33.777 Y-26.618 F7800.000
G1 X31.890 Y-26.589 E57.93220 F1800.000
G1 X30.054 Y-27.031 E58.10193
G1 X28.386 Y-27.915 E58.27167
G1 X26.990 Y-29.186 E58.44141
G1 X25.954 Y-30.765 E58.61115
G1 X25.343 Y-32.551 E58.78089
G1 X25.196 Y-34.434 E58.95063
G1 X25.521 Y-36.293 E59.12037
G1 X26.299 Y-38.014 E59.29010
G1 X27.480 Y-39.487 E59.45984
G1 X28.990 Y-40.620 E59.62958
G1 X30.735 Y-41.342 E59.79932
G1 X32.411 Y-41.579 E59.95153
G1 X32.604 Y-41.607 E59.96906 F1800.000
G1 X34.481 Y-41.399 E60.13880
G1 X36.247 Y-40.731 E60.30854
G1 X37.791 Y-39.644 E60.47827
G1 X39.017 Y-38.208 E60.64801
G1 X39.847 Y-36.512 E60.81775
G1 X40.229 Y-34.663 E60.98749
G1 X40.139 Y-32.777 E61.15723
G1 X39.583 Y-30.973 E61.32697
G1 X38.596 Y-29.363 E61.49671
G1 X37.239 Y-28.050 E61.66645
G1 X35.599 Y-27.115 E61.83618
G1 X33.835 Y-26.634 E62.00053
G1 X33.689 Y-27.241 F7800.000
G1 X31.959 Y-27.215 E62.15607 F1800.000
G1 X30.277 Y-27.620 E62.31162
G1 X28.748 Y-28.430 E62.46716
G1 X27.469 Y-29.595 E62.62271
G1 X26.519 Y-31.041 E62.77825
G1 X25.960 Y-32.679 E62.93380
G1 X25.825 Y-34.404 E63.08934
G1 X26.123 Y-36.108 E63.24489
G1 X26.836 Y-37.685 E63.40043
G1 X27.918 Y-39.034 E63.55598
G1 X29.302 Y-40.073 E63.71152
G1 X30.901 Y-40.734 E63.86707
G1 X32.499 Y-40.961 E64.01218
G1 X32.614 Y-40.977 E64.02261 F1800.000
G1 X34.334 Y-40.786 E64.17816
G1 X35.952 Y-40.174 E64.33370
G1 X37.367 Y-39.179 E64.48925
G1 X38.490 Y-37.863 E64.64479
G1 X39.251 Y-36.308 E64.80034
G1 X39.601 Y-34.614 E64.95588
G1 X39.519 Y-32.886 E65.11143
G1 X39.009 Y-31.232 E65.26697
G1 X38.104 Y-29.757 E65.42252
G1 X36.861 Y-28.554 E65.57806
G1 X35.358 Y-27.697 E65.73361
G1 X33.747 Y-27.257 E65.88376
G1 X33.524 Y-26.877 F7800.000
G1 X64.147 Y-32.886 F7800.000
G1 X63.986 Y-34.051 E65.98946 F1800.000
G1 X64.149 Y-35.249 E66.09815
G1 X64.572 Y-36.291 E66.19929
G1 X65.279 Y-37.225 E66.30451
G1 X66.202 Y-37.943 E66.40972
G1 X67.281 Y-38.398 E66.51494
G1 X68.395 Y-38.552 E66.61608 F1800.000
G1 X69.596 Y-38.416 E66.72477
G1 X70.686 Y-37.973 E66.83047
G1 X71.619 Y-37.267 E66.93569
G1 X72.338 Y-36.343 E67.04090
G1 X72.793 Y-35.265 E67.14612
G1 X72.954 Y-34.100 E67.25182
G1 X72.791 Y-32.902 E67.36051
G1 X72.367 Y-31.860 E67.46165
G1 X71.661 Y-30.926 E67.56687
G1 X70.737 Y-30.208 E67.67208
G1 X69.659 Y-29.753 E67.77730
G1 X68.500 Y-29.592 E67.88251
G1 X67.338 Y-29.737 E67.98773
G1 X66.254 Y-30.178 E68.09295
G1 X65.317 Y-30.888 E68.19865
G1 X64.585 Y-31.850 E68.30734
G1 X64.170 Y-32.831 E68.40308
G1 X64.755 Y-33.054 F7800.000
G1 X64.617 Y-34.052 E68.49368 F1800.000
G1 X64.757 Y-35.087 E68.58758
G1 X65.120 Y-35.980 E68.67424
G1 X65.727 Y-36.782 E68.76466
G1 X66.521 Y-37.399 E68.85509
G1 X67.448 Y-37.790 E68.94551
G1 X68.403 Y-37.923 E69.03217 F1800.000
G1 X69.441 Y-37.804 E69.12607
G1 X70.374 Y-37.425 E69.21667
G1 X71.176 Y-36.818 E69.30709
G1 X71.794 Y-36.024 E69.39752
G1 X72.185 Y-35.097 E69.48794
G1 X72.323 Y-34.099 E69.57854
G1 X72.182 Y-33.064 E69.67244
G1 X71.819 Y-32.171 E69.75910
G1 X71.212 Y-31.369 E69.84952
G1 X70.418 Y-30.751 E69.93994
G1 X69.492 Y-30.360 E70.03037
G1 X68.495 Y-30.223 E70.12079
G1 X67.497 Y-30.347 E70.21122
G1 X66.566 Y-30.726 E70.30164
G1 X65.762 Y-31.334 E70.39224
G1 X65.130 Y-32.165 E70.48614
G1 X64.778 Y-32.998 E70.56740
G1 X64.373 Y-33.171 F7800.000
G1 X64.757 Y-52.327 F7800.000
G1 X77.262 Y-52.326 E71.69162 F1800.000
G1 X78.206 Y-52.263 E71.77664 F1800.000
G1 X79.127 Y-52.079 E71.86103
G1 X80.015 Y-51.776 E71.94543
G1 X80.857 Y-51.361 E72.02982
G1 X81.638 Y-50.839 E72.11421
G1 X82.343 Y-50.220 E72.19861
G1 X82.962 Y-49.514 E72.28300
G1 X83.484 Y-48.734 E72.36740
G1 X83.900 Y-47.892 E72.45179
G1 X84.202 Y-47.003 E72.53619
G1 X84.386 Y-46.083 E72.62058
G1 X84.456 Y-45.040 E72.71457
G1 X84.456 Y45.040 E80.81262
G1 X84.386 Y46.083 E80.90661
G1 X84.202 Y47.003 E80.99100
G1 X83.900 Y47.892 E81.07540
G1 X83.484 Y48.734 E81.15979
G1 X82.962 Y49.514 E81.24419
G1 X82.343 Y50.220 E81.32858
G1 X81.638 Y50.839 E81.41298
G1 X80.857 Y51.361 E81.49737
G1 X80.015 Y51.776 E81.58177
G1 X79.127 Y52.079 E81.66616
G1 X78.206 Y52.263 E81.75056
G1 X77.163 Y52.332 E81.84455
G1 X22.077 Y52.332 E86.79668
G1 X21.074 Y52.269 E86.88709
G1 X20.189 Y52.100 E86.96810
G1 X19.332 Y51.822 E87.04911
G1 X18.516 Y51.438 E87.13012
G1 X17.755 Y50.955 E87.21113
G1 X17.061 Y50.381 E87.29214
G1 X16.444 Y49.724 E87.37315
G1 X15.915 Y48.995 E87.45416
G1 X15.481 Y48.205 E87.53517
G1 X15.149 Y47.367 E87.61618
G1 X14.925 Y46.495 E87.69719
G1 X14.812 Y45.600 E87.77821
G1 X14.812 Y-45.600 E95.97709
G1 X14.925 Y-46.495 E96.05812
G1 X15.149 Y-47.367 E96.13913
G1 X15.481 Y-48.205 E96.22014
G1 X15.915 Y-48.995 E96.30115
G1 X16.444 Y-49.724 E96.38216
G1 X17.061 Y-50.381 E96.46317
G1 X17.755 Y-50.955 E96.54418
G1 X18.516 Y-51.438 E96.62519
G1 X19.332 Y-51.822 E96.70620
G1 X20.189 Y-52.100 E96.78721
G1 X21.074 Y-52.269 E96.86822
G1 X22.077 Y-52.332 E96.95862
G1 X64.697 Y-52.327 E100.79010
G1 X64.757 Y-52.952 F7800.000
G1 X77.283 Y-52.951 E101.91619 F1800.000
G1 X78.288 Y-52.884 E102.00674 F1800.000
G1 X79.289 Y-52.684 E102.09849
G1 X80.255 Y-52.355 E102.19024
G1 X81.170 Y-51.903 E102.28198
G1 X82.019 Y-51.336 E102.37373
G1 X82.786 Y-50.663 E102.46548
G1 X83.459 Y-49.896 E102.55723
G1 X84.026 Y-49.047 E102.64898
G1 X84.478 Y-48.132 E102.74072
G1 X84.807 Y-47.166 E102.83247
G1 X85.007 Y-46.165 E102.92422
G1 X85.080 Y-45.060 E103.02375
G1 X85.080 Y45.060 E111.12554
G1 X85.007 Y46.165 E111.22508
G1 X84.807 Y47.166 E111.31682
G1 X84.478 Y48.132 E111.40857
