; generated by Slic3r 1.2.9 on 2018-10-31 at 20:05:18

; https://www.youtube.com/watch?v=RkMNx0dD2vE&feature=youtu.be
; https://3duniverse.org/2014/01/05/using-slic3r-with-a-flashforge-creator/
; http://www.thingiverse.com/thing:81425/#files
; http://manual.slic3r.org/getting-slic3r/getting-slic3r#building-from-source
; 
; Saved GPX post-processing in Applications. All the rest is saved as different Printer Profiles

; external perimeters extrusion width = 0.40mm
; perimeters extrusion width = 0.67mm
; infill extrusion width = 0.67mm
; solid infill extrusion width = 0.67mm
; top infill extrusion width = 0.67mm
; support material extrusion width = 0.40mm

M127
M109 S120 ; set bed temperature
;
;
;- - - - SUMMARY - - - -
;
;first layer temperature = 240C
;temperature = 230C
;first layer bed temperature = 120C
;bed temperature = 110C
;
;first layer height = 0.35mm
;layer height = 0.2mm
;z_offset = 0mm
;perimeters = 2
;fill density = 15%
;infill every n layers = 1
;skirts = 1
;brim width = 0mm
;raft layers = 0
;support material = 1
;support material threshold = 0 degrees
;support material enforced for first n layers = 0
;support material extruder = 1
;
;first layer speed = 30
;perimeter speed = 30mm/s
;small perimeter speed = 30
;external perimeter speed = 70%
;infill speed = 60mm/s
;solid infill speed = 60
;top solid infill speed = 50
;support material speed = 60mm/s
;gap fill speed = 20mm/s
;travel speed = 130mm/s
;bridge speed = 60mm/s
;bridge flow ratio = 1
;slowdown if layer time is less than = 5secs
;minimum print speed = 10mm/s
;
;bottom solid layers = 3
;top solid layers = 3
;
;
;- - - - EXTRUSION - - - -
;
;filament diameter = 1.76mm
;nozzle diameter = 0.4mm
;bridge flow ratio = 1
;extrusion axis = E
;extrusion multiplier = 1
;extrusion width = 0mm
;first layer extrusion width = 200%mm
;perimeter extrusion width = 0mm
;infill extrusion width = 0mm
;solid infill extrusion width = 0mm
;top infill extrusion width = 0mm
;support material extrusion width = 0mm
;
;
;- - - - SUPPORT - - - -
;
;raft layers = 0
;brim width = 0mm
;support material = 1
;support material threshold = 0 degrees
;support material enforced for first n layers = 0
;support material extruder = 1
;support material extrusion width = 0mm
;support material interface layers = 4
;support material interface spacing = 0mm
;support material pattern = rectilinear
;support material angle = 0 degrees
;support material spacing = 2.5mm
;support material speed = 60mm/s
;
;
;- - - - EVERYTHING ELSE - - - -
;
;complete objects = 0
;cooling enabled = 1
;default acceleration = 0mm/s/s
;disable fan for first layers = 3
;duplicate = [duplicate]
;duplicate distance = 6mm
;duplicate grid = [duplicate_grid]
;external perimeters first = 0
;extra perimeters = 1
;extruder clearance height = 20mm
;extruder clearance radius = 20mm
;extruder offset = 0,0mm
;fan always on = 1
;fan below layer time = 60secs
;fill angle = 45 degrees
;fill pattern = honeycomb
;gcode arcs = 0
;gcode comments = 0
;gcode flavor = sailfish
;infill acceleration = 0mm/s/s
;infill extruder = 1
;infill first = 0
;infill only where needed = 0
;minimum skirt length = 0mm
;only retract when crossing perimeters = 1
;perimeter acceleration = 0mm/s/s
;perimeter extruder = 1
;randomize start = [randomize_start]
;resolution = 0mm
;retract before travel = 2
;retract on layer change = 0
;retract length = 2mm
;retract length on tool change = 10mm
;retract lift = 0
;retract extra distance on restart = 0mm
;retract extra on tool change = 0mm
;retract speed = 40mm/s
;rotate = [rotate] degrees
;scale = 100%
;skirt distance = 6mm
;skirt height = 1mm
;solid fill pattern = [solid_fill_pattern]
;solid infill below area = 70mm (sq)
;solid infill every n layers = 0
;
;
;- - - - - - - - - - - - - - - - - - - - - - - - -
;
;
T0; set primary extruder
M73 P0; enable show build progress
M109 S120 T0; heat bed up to first layer temperature
M104 S240 T0; set nozzle heater to first layer temperature
M103; disable RPM
G21; set units to mm
G162 X Y F6000; home XY axes maximum
G161 Z F9000; home Z axis minimum
G92 Z0; set Z to 0
M132 X Y Z A B; Recall stored home offsets
G90; set positioning to absolute
G1 Z30; move Z to waiting height
G1 X-95 Y-73 Z30 F14000; move to waiting position (front left corner of print bed)
G130 X0 Y0 A0 B0; set stepper motor vref to lower value while heating
M6 T0; wait for bed and extruder to heat up
G130 X127 Y127 A127 B127; set stepper motor vref to defaults
M108 T0 R3; set extruder speed
G92 E0; set E to 0
G90; use absolute coordinates
M320; acceleration enabled for all commands that follow
G1 Z0.35 F6000.000; move to first layer height
G1 X100 Y-73 F14000.000; move to front right corner of bed
G1 X-90 Y-73 E24 F2000.000; extrude a line of filament across the front edge of the bed
G4 P2000; wait for ooze to slow
G1 Z0 F6000.000; lower nozzle height to 0
G1 X-95; wipe nozzle
G1 Z0.35 F6000.000; set nozzle to first layer height
G1 F12000; ensure fast travel to first print move
G92 E0; set E to 0 again
M73 P0; reset build progress to 0
G21 ; set units to millimeters
G90 ; use absolute coordinates
M73 P0
G1 Z0.350 F7800.000
G1 E-2.00000 F2400.00000
G1 X-9.270 Y61.475 F7800.000
G1 E0.00000 F2400.00000
G1 X-64.085 Y53.210 E4.98353 F1800.000
G1 X-66.259 Y52.480 E5.18971
G1 X-68.055 Y51.053 E5.39589
G1 X-69.256 Y49.100 E5.60207
G1 X-69.683 Y47.375 E5.76181
G1 X-70.801 Y37.096 E6.69134
G1 X-70.838 Y36.532 E6.74208
G1 X-70.899 Y33.866 E6.98187
G1 X-70.901 Y-33.228 E13.01358
G1 X-70.877 Y-33.791 E13.06420
G1 X-69.698 Y-47.623 E14.31223
G1 X-69.111 Y-49.840 E14.51841
G1 X-67.803 Y-51.724 E14.72459
G1 X-65.931 Y-53.049 E14.93077
G1 X-64.041 Y-53.618 E15.10815
G1 X-4.963 Y-62.125 E20.47400
G1 X-4.435 Y-62.179 E20.52175
G1 X-2.703 Y-62.275 E20.67768
G1 X52.597 Y-62.275 E25.64911
G1 X53.036 Y-62.260 E25.68862
G1 X54.407 Y-62.169 E25.81216 F1800.000
G1 X55.265 Y-62.055 E25.88991
G1 X56.612 Y-61.786 E26.01338
G1 X57.447 Y-61.562 E26.09117
G1 X58.747 Y-61.119 E26.21460
G1 X59.545 Y-60.788 E26.29230
G1 X60.777 Y-60.180 E26.41583
G1 X61.527 Y-59.747 E26.49361
G1 X62.668 Y-58.984 E26.61705
G1 X63.354 Y-58.457 E26.69483
G1 X64.387 Y-57.551 E26.81827
G1 X64.999 Y-56.940 E26.89606
G1 X65.905 Y-55.906 E27.01962
G1 X66.431 Y-55.221 E27.09728
G1 X67.196 Y-54.076 E27.22106
G1 X67.627 Y-53.330 E27.29850
G1 X68.232 Y-52.104 E27.42144
G1 X68.566 Y-51.300 E27.49972
G1 X69.009 Y-50.000 E27.62315
G1 X69.233 Y-49.165 E27.70095
G1 X69.502 Y-47.818 E27.82438
G1 X69.616 Y-46.960 E27.90216
G1 X69.722 Y-45.150 E28.06520
G1 X69.722 Y45.150 E36.18310
G1 X69.616 Y46.960 E36.34613
G1 X69.502 Y47.818 E36.42391
G1 X69.233 Y49.168 E36.54762
G1 X69.009 Y50.000 E36.62515
G1 X68.566 Y51.302 E36.74872
G1 X68.235 Y52.099 E36.82637
G1 X67.627 Y53.330 E36.94980
G1 X67.194 Y54.080 E37.02759
G1 X66.431 Y55.221 E37.15102
G1 X65.904 Y55.907 E37.22881
G1 X64.998 Y56.940 E37.35225
G1 X64.387 Y57.551 E37.43001
G1 X63.354 Y58.457 E37.55347
G1 X62.668 Y58.984 E37.63125
G1 X61.527 Y59.747 E37.75468
G1 X60.777 Y60.180 E37.83248
G1 X59.546 Y60.788 E37.95591
G1 X58.743 Y61.121 E38.03408
G1 X57.447 Y61.562 E38.15713
G1 X56.614 Y61.786 E38.23474
G1 X55.265 Y62.055 E38.35835
G1 X54.407 Y62.169 E38.43614
G1 X52.597 Y62.275 E38.59918
G1 X-2.703 Y62.275 E43.57060
G1 X-4.435 Y62.179 E43.72653
G1 X-5.007 Y62.118 E43.77824
G1 X-9.211 Y61.484 E44.16044
G1 E42.16044 F2400.00000
G1 X-12.207 Y5.825 F7800.000
G1 E44.16044 F2400.00000
G1 X-12.207 Y-45.748 E48.79680 F1800.000
G1 X-12.057 Y-46.934 E48.90432
G1 X-11.760 Y-48.093 E49.01184
G1 X-11.320 Y-49.205 E49.11935
G1 X-10.744 Y-50.253 E49.22686
G1 X-10.041 Y-51.220 E49.33438
G1 X-9.222 Y-52.092 E49.44189
G1 X-8.301 Y-52.854 E49.54941
G1 X-7.291 Y-53.495 E49.65692
G1 X-6.209 Y-54.004 E49.76444
G1 X-5.071 Y-54.374 E49.87195
G1 X-3.897 Y-54.598 E49.97947
G1 X-2.672 Y-54.675 E50.08974
G1 X52.570 Y-54.675 E55.05599
G1 X53.839 Y-54.590 E55.17028 F1800.000
G1 X55.060 Y-54.346 E55.28224
G1 X56.239 Y-53.945 E55.39421
G1 X57.356 Y-53.394 E55.50617
G1 X58.391 Y-52.701 E55.61813
G1 X59.327 Y-51.880 E55.73009
G1 X60.148 Y-50.944 E55.84205
G1 X60.841 Y-49.909 E55.95402
G1 X61.390 Y-48.797 E56.06551
G1 X61.793 Y-47.613 E56.17796
G1 X62.037 Y-46.392 E56.28990
G1 X62.122 Y-45.118 E56.40468
G1 X62.122 Y45.118 E64.51675
G1 X62.037 Y46.392 E64.63153
G1 X61.793 Y47.613 E64.74350
G1 X61.392 Y48.792 E64.85546
G1 X60.841 Y49.909 E64.96742
G1 X60.148 Y50.944 E65.07938
G1 X59.327 Y51.880 E65.19135
G1 X58.391 Y52.701 E65.30331
G1 X57.356 Y53.394 E65.41527
G1 X56.239 Y53.945 E65.52723
G1 X55.060 Y54.346 E65.63920
G1 X53.839 Y54.590 E65.75116
G1 X52.565 Y54.675 E65.86594
G1 X-2.672 Y54.675 E70.83170
G1 X-3.897 Y54.598 E70.94197
G1 X-5.071 Y54.374 E71.04949
G1 X-6.209 Y54.004 E71.15700
G1 X-7.291 Y53.495 E71.26452
G1 X-8.301 Y52.854 E71.37203
G1 X-9.222 Y52.092 E71.47955
G1 X-10.041 Y51.220 E71.58706
G1 X-10.744 Y50.253 E71.69457
G1 X-11.320 Y49.205 E71.80209
G1 X-11.760 Y48.093 E71.90960
G1 X-12.057 Y46.934 E72.01712
G1 X-12.207 Y45.748 E72.12464
G1 X-12.207 Y5.885 E75.70824
G1 X-12.832 Y5.825 F7800.000
G1 X-12.832 Y-45.787 E80.34814 F1800.000
G1 X-12.672 Y-47.052 E80.46273
G1 X-12.355 Y-48.286 E80.57731
G1 X-11.886 Y-49.471 E80.69189
G1 X-11.272 Y-50.588 E80.80648
G1 X-10.523 Y-51.619 E80.92106
G1 X-9.651 Y-52.549 E81.03564
G1 X-8.669 Y-53.361 E81.15023
G1 X-7.593 Y-54.044 E81.26481
G1 X-6.439 Y-54.587 E81.37940
G1 X-5.227 Y-54.981 E81.49398
G1 X-3.975 Y-55.219 E81.60856
G1 X-2.692 Y-55.300 E81.72414
G1 X52.591 Y-55.300 E86.69402
G1 X53.921 Y-55.211 E86.81386 F1800.000
G1 X55.222 Y-54.951 E86.93317
G1 X56.479 Y-54.523 E87.05249
G1 X57.669 Y-53.936 E87.17180
G1 X58.772 Y-53.198 E87.29112
G1 X59.770 Y-52.323 E87.41043
G1 X60.645 Y-51.325 E87.52975
G1 X61.383 Y-50.222 E87.64906
G1 X61.968 Y-49.037 E87.76790
G1 X62.398 Y-47.775 E87.88770
G1 X62.658 Y-46.474 E88.00701
G1 X62.747 Y-45.138 E88.12734
G1 X62.747 Y45.138 E96.24314
G1 X62.658 Y46.474 E96.36347
G1 X62.398 Y47.775 E96.48278
G1 X61.971 Y49.032 E96.60210
G1 X61.383 Y50.222 E96.72142
G1 X60.645 Y51.325 E96.84073
G1 X59.770 Y52.323 E96.96005
G1 X58.772 Y53.198 E97.07936
G1 X57.669 Y53.936 E97.19868
G1 X56.479 Y54.523 E97.31799
G1 X55.222 Y54.951 E97.43731
G1 X53.921 Y55.211 E97.55663
G1 X52.585 Y55.300 E97.67695
G1 X-2.692 Y55.300 E102.64635
G1 X-3.975 Y55.219 E102.76192
G1 X-5.227 Y54.980 E102.87650
G1 X-6.439 Y54.587 E102.99109
G1 X-7.593 Y54.044 E103.10567
G1 X-8.669 Y53.361 E103.22026
G1 X-9.651 Y52.549 E103.33484
G1 X-10.523 Y51.619 E103.44942
G1 X-11.272 Y50.588 E103.56400
G1 X-11.886 Y49.471 E103.67859
G1 X-12.355 Y48.286 E103.79317
G1 X-12.672 Y47.052 E103.90776
G1 X-12.832 Y45.787 E104.02234
G1 X-12.832 Y5.885 E107.60948
G1 X-12.486 Y5.625 F7800.000
G1 X-11.098 Y48.578 F7800.000
G1 X-6.128 Y53.548 E108.24304 F1800.000
G1 X-4.772 Y54.018 F7800.000
G1 X-11.550 Y47.240 E109.10706 F1800.000
G1 X-11.757 Y46.146 E109.20743
G1 X-3.680 Y54.224 E110.23712
G1 X-2.734 Y54.283 E110.32253
G1 X-11.828 Y45.189 E111.48182
G1 X-11.828 Y44.303 E111.56170
G1 X-1.835 Y54.297 E112.83564
G1 X-0.949 Y54.297 E112.91551
G1 X-11.828 Y43.417 E114.30242
G1 X-11.828 Y42.531 E114.38229
G1 X-0.063 Y54.297 E115.88215
G1 X0.823 Y54.297 E115.96202
G1 X-11.828 Y41.645 E117.57484
G1 X-11.828 Y40.759 E117.65471
G1 X1.709 Y54.297 E119.38049
G1 X2.595 Y54.297 E119.46036
G1 X-11.828 Y39.873 E121.29909
G1 X-11.828 Y38.986 E121.37896
G1 X3.482 Y54.297 E123.33065
G1 X4.368 Y54.297 E123.41053
G1 X-11.828 Y38.100 E125.47517
G1 X-11.828 Y37.214 E125.55505
G1 X5.254 Y54.297 E127.73265
G1 X6.140 Y54.297 E127.81252
G1 X-11.828 Y36.328 E130.10309
G1 X-11.828 Y35.442 E130.18296
G1 X7.026 Y54.297 E132.58648
G1 X7.912 Y54.297 E132.66635
G1 X-11.828 Y34.556 E135.18283
G1 X-11.828 Y33.670 E135.26270
G1 X8.798 Y54.297 E137.89214
G1 X9.684 Y54.297 E137.97201
G1 X-11.828 Y32.784 E140.71440
G1 X-11.828 Y31.898 E140.79428
G1 X10.570 Y54.297 E143.64963
G1 X11.456 Y54.297 E143.72950
G1 X-11.828 Y31.012 E146.69781
G1 X-11.828 Y30.126 E146.77768
G1 X12.343 Y54.297 E149.85895
G1 X13.229 Y54.297 E149.93882
G1 X-11.828 Y29.239 E153.13304
G1 X-11.828 Y28.353 E153.21291
G1 X14.115 Y54.297 E156.52009
G1 X15.001 Y54.297 E156.59997
G1 X-11.828 Y27.467 E160.02010
G1 X-11.828 Y26.581 E160.09998
G1 X15.887 Y54.297 E163.63307
G1 X16.773 Y54.297 E163.71295
G1 X-11.828 Y25.695 E167.35900
G1 X-11.828 Y24.809 E167.43887
G1 X17.659 Y54.297 E171.19788
G1 X18.545 Y54.297 E171.27775
G1 X-11.828 Y23.923 E175.14972
G1 X-11.828 Y23.037 E175.22960
G1 X19.431 Y54.297 E179.21452
G1 X20.317 Y54.297 E179.29439
G1 X-11.828 Y22.151 E183.39228
G1 X-11.828 Y21.265 E183.47215
G1 X21.204 Y54.297 E187.68299
G1 X22.090 Y54.297 E187.76286
G1 X-11.828 Y20.378 E192.08666
G1 X-11.828 Y19.492 E192.16653
G1 X22.976 Y54.297 E196.60329
G1 X23.862 Y54.297 E196.68316
G1 X-11.828 Y18.606 E201.23287
G1 X-11.828 Y17.720 E201.31275
G1 X24.748 Y54.297 E205.97542
G1 X25.634 Y54.297 E206.05529
G1 X-11.828 Y16.834 E210.83092
G1 X-11.828 Y15.948 E210.91079
G1 X26.520 Y54.297 E215.79938
G1 X27.406 Y54.297 E215.87925
G1 X-11.828 Y15.062 E220.88079
G1 X-11.828 Y14.176 E220.96067
G1 X28.292 Y54.297 E226.07517
G1 X29.178 Y54.297 E226.15504
G1 X-11.828 Y13.290 E231.38250
G1 X-11.828 Y12.404 E231.46237
G1 X30.064 Y54.297 E236.80279
G1 X30.951 Y54.297 E236.88266
G1 X-11.828 Y11.517 E242.33603
G1 X-11.828 Y10.631 E242.41591
G1 X31.837 Y54.297 E247.98224
G1 X32.723 Y54.297 E248.06211
G1 X-11.828 Y9.745 E253.74140
G1 X-11.828 Y8.859 E253.82127
G1 X33.609 Y54.297 E259.61352
G1 X34.495 Y54.297 E259.69339
G1 X-11.828 Y7.973 E265.59859
G1 X-11.828 Y7.087 E265.67847
G1 X35.381 Y54.297 E271.69663
G1 X36.267 Y54.297 E271.77650
G1 X-11.828 Y6.201 E277.90762
G1 X-11.828 Y5.315 E277.98749
G1 X37.153 Y54.297 E284.23157
G1 X38.039 Y54.297 E284.31144
G1 X-11.828 Y4.429 E290.66848
G1 X-11.828 Y3.543 E290.74835
G1 X38.925 Y54.297 E297.21834
G1 X39.812 Y54.297 E297.29821
G1 X-11.828 Y2.657 E303.88116
G1 X-11.828 Y1.770 E303.96103
G1 X40.698 Y54.297 E310.65694
G1 X41.584 Y54.297 E310.73681
G1 X-11.828 Y0.884 E317.54568
G1 X-11.828 Y-0.002 E317.62555
G1 X42.470 Y54.297 E324.54737
G1 X43.356 Y54.297 E324.62725
G1 X-11.828 Y-0.888 E331.66202
G1 X-11.828 Y-1.774 E331.74190
G1 X44.242 Y54.297 E338.88963
G1 X45.128 Y54.297 E338.96951
G1 X-11.828 Y-2.660 E346.23020
G1 X-11.828 Y-3.546 E346.31007
G1 X46.014 Y54.297 E353.68372
G1 X46.900 Y54.297 E353.76360
G1 X-11.828 Y-4.432 E361.25021
G1 X-11.828 Y-5.318 E361.33008
G1 X47.786 Y54.297 E368.92965
G1 X48.673 Y54.297 E369.00952
G1 X-11.828 Y-6.204 E376.72204
G1 X-11.828 Y-7.091 E376.80192
G1 X49.559 Y54.297 E384.62740
G1 X50.445 Y54.297 E384.70727
G1 X-11.828 Y-7.977 E392.64571
G1 X-11.828 Y-8.863 E392.72558
G1 X51.331 Y54.297 E400.77698
G1 X52.217 Y54.297 E400.85685
G1 X-11.828 Y-9.749 E409.02121
G1 X-11.828 Y-10.635 E409.10108
G1 X53.077 Y54.270 E417.37502
G1 X53.907 Y54.214 E417.45004
G1 X-11.828 Y-11.521 E425.82984
G1 X-11.828 Y-12.407 E425.90971
G1 X54.645 Y54.067 E434.38365
G1 X55.350 Y53.885 E434.44923
G1 X-11.828 Y-13.293 E443.01298
G1 X-11.828 Y-14.179 E443.09286
G1 X56.011 Y53.660 E451.74089
G1 X56.621 Y53.384 E451.80125
G1 X-11.828 Y-15.065 E460.52705
G1 X-11.828 Y-15.952 E460.60693
G1 X57.214 Y53.091 E469.40835
G1 X57.747 Y52.738 E469.46598
G1 X-11.828 Y-16.838 E478.33533
G1 X-11.828 Y-17.724 E478.41521
G1 X58.271 Y52.376 E487.35131
G1 X58.743 Y51.962 E487.40791
G1 X-11.828 Y-18.610 E496.40419
G1 X-11.828 Y-19.496 E496.48406
G1 X59.194 Y51.526 E505.53779
G1 X59.615 Y51.061 E505.59434
G1 X-11.828 Y-20.382 E514.70174
G1 X-11.828 Y-21.268 E514.78161
G1 X60.007 Y50.567 E523.93899
G1 X60.362 Y50.036 E523.99658
G1 X-11.828 Y-22.154 E533.19922
G1 X-11.828 Y-23.040 E533.27909
G1 X60.684 Y49.472 E542.52283
G1 X60.977 Y48.879 E542.58246
G1 X-11.828 Y-23.926 E551.86353
G1 X-11.828 Y-24.813 E551.94340
G1 X61.219 Y48.235 E561.25536
G1 X61.440 Y47.570 E561.31856
G1 X-11.828 Y-25.699 E570.65861
G1 X-11.828 Y-26.585 E570.73849
G1 X61.587 Y46.831 E580.09735
G1 X61.689 Y46.047 E580.16862
G1 X-11.828 Y-27.471 E589.54050
G1 X-11.828 Y-28.357 E589.62037
G1 X61.744 Y45.215 E598.99917
